src/assets/images/w2r.svg

<svg xmlns="http://www.w3.org/2000/svg" width="600" height="600" fill="none"><path fill="#686762" fill-opacity=".8" d="M374.162 511.782H226v16.462h148.162v-16.462Z"/><path fill="#432614" d="M341.237 317.76h-34.101v81.136h34.101z"/><path fill="#A29081" d="M325.162 267h-82v51h82zM259.162 318h-16v81h16zM324.775 349.509h-17.638v16.462h17.638z"/><path fill="#7F7164" d="M324.775 382.434h-17.638v16.463h17.638v-16.463ZM324.775 333.047h-17.638v16.462h17.638v-16.462ZM341.162 399l-16.387-.103v14.698h16.387V399ZM307.137 317.76h-31.161v-17.638h-32.314v17.638h15.263v95.835h17.051v-80.548h31.161V317.76ZM341.162 267h-16v51h16z"/><path fill="#432614" d="M307.136 300.122h-15.287v17.638h15.287zM275.162 284h-32v16h32z"/><path fill="#F0A748" d="M291.85 300.122h-16.462v17.638h16.462z"/><path fill="#35200F" d="M341.162 413h-16v99h16z"/><path fill="#14181B" d="M341.237 511.782h-17.638v16.462h17.638v-16.462ZM276.563 511.782h-17.638v16.462h17.638v-16.462Z"/><path fill="#35200F" d="M276.162 413h-17v99h17z"/><path fill="#0D1D12" d="M357.7 333.047h-16.463v16.462H357.7v-16.462Z"/><path fill="#A04B2C" d="M309.488 137.85H291.85v16.462h17.638V137.85ZM309.488 168.423H291.85v98.774h17.638v-98.774ZM276.162 168h-17v99h17v-99ZM275.387 137.85h-16.462v16.462h16.462V137.85ZM357.7 184.885h-16.463v16.463H357.7v-16.463ZM341.237 154.312h-16.462v16.462h16.462v-16.462Z"/><path fill="#823217" d="M357.7 201.348h-16.463v32.924H357.7v-32.924ZM309.488 154.312H291.85v14.111h17.638v-14.111ZM275.387 154.312h-16.462v14.111h16.462v-14.111ZM292.162 185h-17v82h17v-82Z"/><path fill="#823217" d="M341.237 170.775h-16.462v96.422h16.462v-96.422Z"/><path fill="#0D1D12" d="M259.162 154h-16v113h16V154ZM324.775 137.85h-15.287v129.347h15.287V137.85Z"/><path fill="#E7CBBD" d="M309.488 72h-51.739v49.975h17.639v32.337h16.462v-16.551h17.638V72Z"/><path fill="#CDA998" d="M291.85 154.312h-16.462v31.749h16.462z"/><path fill="#3C2D0C" d="M309.488 72h-51.739v16.462h17.639v17.051h16.462v17.05h17.638V72Z"/><path fill="#E7CBBD" d="M374.162 398.896h-16.463v15.287h16.463v-15.287Z"/><path fill="#A04B2C" d="M374.162 234.272h-16.463v16.463h16.463v-16.463Z"/><path fill="#823217" d="M374.162 250.735h-16.463v148.162h16.463V250.735Z"/><path fill="#E7CBBD" d="M243.162 400h-16v15h16v-15Z"/><path fill="#823217" d="M243.162 235h-16v165h16V235Z"/></svg>

<svg width="600" height="600" viewBox="0 0 600 600" fill="none" xmlns="http://www.w3.org/2000/svg">
<path d="M374.162 511.782H226V528.244H374.162V511.782Z" fill="#686762" fill-opacity="0.8"/>
<rect width="34.1007" height="81.1362" transform="matrix(-1 0 0 1 341.237 317.76)" fill="#432614"/>
<rect width="82" height="51" transform="matrix(-1 0 0 1 325.162 267)" fill="#A29081"/>
<rect width="16" height="81" transform="matrix(-1 0 0 1 259.162 318)" fill="#A29081"/>
<rect width="17.6383" height="16.4624" transform="matrix(-1 0 0 1 324.775 349.509)" fill="#A29081"/>
<path d="M324.775 382.434H307.137V398.897H324.775V382.434Z" fill="#7F7164"/>
<path d="M324.775 333.047H307.137V349.509H324.775V333.047Z" fill="#7F7164"/>
<path d="M341.162 399L324.775 398.897V413.595H341.162V399Z" fill="#7F7164"/>
<path d="M307.137 317.76H275.976V300.122H243.662V317.76H258.925V413.595H275.976V333.047H307.137V317.76Z" fill="#7F7164"/>
<rect width="16" height="51" transform="matrix(-1 0 0 1 341.162 267)" fill="#7F7164"/>
<rect width="15.2865" height="17.6383" transform="matrix(-1 0 0 1 307.136 300.122)" fill="#432614"/>
<rect width="32" height="16" transform="matrix(-1 0 0 1 275.162 284)" fill="#432614"/>
<rect width="16.4624" height="17.6383" transform="matrix(-1 0 0 1 291.85 300.122)" fill="#F0A748"/>
<rect width="16" height="99" transform="matrix(-1 0 0 1 341.162 413)" fill="#35200F"/>
<path d="M341.237 511.782H323.599V528.244H341.237V511.782Z" fill="#14181B"/>
<path d="M276.563 511.782H258.925V528.244H276.563V511.782Z" fill="#14181B"/>
<rect width="17" height="99" transform="matrix(-1 0 0 1 276.162 413)" fill="#35200F"/>
<path d="M357.7 333.047H341.237V349.509H357.7V333.047Z" fill="#0D1D12"/>
<path d="M309.488 137.85H291.85V154.312H309.488V137.85Z" fill="#A04B2C"/>
<path d="M309.488 168.423H291.85V267.197H309.488V168.423Z" fill="#A04B2C"/>
<path d="M276.162 168H259.162V267H276.162V168Z" fill="#A04B2C"/>
<path d="M275.387 137.85H258.925V154.312H275.387V137.85Z" fill="#A04B2C"/>
<path d="M357.7 184.885H341.237V201.348H357.7V184.885Z" fill="#A04B2C"/>
<path d="M341.237 154.312H324.775V170.774H341.237V154.312Z" fill="#A04B2C"/>
<path d="M357.7 201.348H341.237V234.272H357.7V201.348Z" fill="#823217"/>
<path d="M309.488 154.312H291.85V168.423H309.488V154.312Z" fill="#823217"/>
<path d="M275.387 154.312H258.925V168.423H275.387V154.312Z" fill="#823217"/>
<path d="M292.162 185H275.162V267H292.162V185Z" fill="#823217"/>
<path d="M341.237 170.775H324.775V267.197H341.237V170.775Z" fill="#823217"/>
<path d="M259.162 154H243.162V267H259.162V154Z" fill="#0D1D12"/>
<path d="M324.775 137.85H309.488V267.197H324.775V137.85Z" fill="#0D1D12"/>
<path d="M309.488 72H257.749V121.975H267.744H275.388V154.312H291.85V137.761H309.488V72Z" fill="#E7CBBD"/>
<rect width="16.4624" height="31.7489" transform="matrix(-1 0 0 1 291.85 154.312)" fill="#CDA998"/>
<path d="M309.488 72H257.749V88.4624H275.388V105.513H291.85V122.563H309.488V72Z" fill="#3C2D0C"/>
<path d="M374.162 398.896H357.699V414.183H374.162V398.896Z" fill="#E7CBBD"/>
<path d="M374.162 234.272H357.699V250.735H374.162V234.272Z" fill="#A04B2C"/>
<path d="M374.162 250.735H357.699V398.897H374.162V250.735Z" fill="#823217"/>
<path d="M243.162 400H227.162V415H243.162V400Z" fill="#E7CBBD"/>
<path d="M243.162 235H227.162V400H243.162V235Z" fill="#823217"/>
</svg>
